src/actions/32/mail-flag.svg

<svg xmlns="http://www.w3.org/2000/svg" viewBox="0 0 32 32">
  <defs id="defs3051">
    <style type="text/css" id="current-color-scheme">
      .ColorScheme-Text {
        color:#2e3440;
      }
      </style>
  </defs>
 <path 
     style="fill:currentColor;fill-opacity:1;stroke:none" 
     d="M 2,5 2,24.683594 2,27 20,27 20,26 3,26 3,25.111328 3.4296875,24.683594 12.785156,15.541016 16,18.683594 28.976562,6 29,6 l 0,8 1,0 0,-9 z M 3,6 3.0234375,6 12.070312,14.841797 3,23.707031 Z M 4.453125,6 27.546875,6 16,17.285156 Z M 21,15 l 0,12 1,0 0,-5 4,-1.628906 L 26,22 l 5,-3 -5,-2 0,-1 -4,-1 z"
     class="ColorScheme-Text"
     />
</svg>

<svg viewBox="0 0 32 32" xmlns="http://www.w3.org/2000/svg">
 <defs>
  <style type="text/css">.ColorScheme-Text {
        color:#2e3440;
      }</style>
 </defs>
 <path class="ColorScheme-Text" d="m2 5v19.684 2.3164h18v-1h-17v-0.88867l0.42969-0.42773 9.3555-9.1426 3.2148 3.1426 12.977-12.684h0.023438v8h1v-9zm1 1h0.023438l9.0469 8.8418-9.0703 8.8652zm1.4531 0h23.094l-11.547 11.285zm16.547 9v12h1v-5l4-1.6289v1.6289l5-3-5-2v-1l-4-1z" fill="currentColor"/>
</svg>
